emoji/svg/up-down_arrow_flat.svg

<svg width="32" height="32" viewBox="0 0 32 32" fill="none" xmlns="http://www.w3.org/2000/svg">
<path d="M2 6C2 3.79086 3.79086 2 6 2H26C28.2091 2 30 3.79086 30 6V26C30 28.2091 28.2091 30 26 30H6C3.79086 30 2 28.2091 2 26V6Z" fill="#00A6ED"/>
<path d="M15.3066 6.16718C15.6938 5.79462 16.3062 5.79462 16.6933 6.16718L22.0061 11.2794C22.6548 11.9036 22.213 13 21.3127 13H18.25C18.1119 13 18 13.1119 18 13.25V18.75C18 18.8881 18.1119 19 18.25 19L21.3127 19C22.213 19 22.6548 20.0964 22.0061 20.7206L16.6933 25.8328C16.3062 26.2053 15.6938 26.2053 15.3066 25.8328L9.99382 20.7206C9.34515 20.0964 9.78698 19 10.6872 19H13.75C13.888 19 14 18.8881 14 18.75V13.25C14 13.1119 13.888 13 13.75 13H10.6872C9.78698 13 9.34515 11.9036 9.99382 11.2794L15.3066 6.16718Z" fill="white"/>
</svg>

<svg xmlns="http://www.w3.org/2000/svg" width="32" height="32" fill="none"><path fill="#00A6ED" d="M2 6a4 4 0 0 1 4-4h20a4 4 0 0 1 4 4v20a4 4 0 0 1-4 4H6a4 4 0 0 1-4-4V6Z"/><path fill="#fff" d="M15.307 6.167a1 1 0 0 1 1.386 0l5.313 5.112c.649.625.207 1.721-.693 1.721H18.25a.25.25 0 0 0-.25.25v5.5c0 .138.112.25.25.25h3.063c.9 0 1.342 1.096.693 1.72l-5.313 5.113a1 1 0 0 1-1.386 0L9.994 20.72c-.649-.625-.207-1.721.693-1.721h3.063a.25.25 0 0 0 .25-.25v-5.5a.25.25 0 0 0-.25-.25h-3.063c-.9 0-1.342-1.096-.693-1.72l5.313-5.113Z"/></svg>
